svg/business/ticket_line.svg

<?xml version="1.0" encoding="UTF-8"?>
<svg width="24px" height="24px" viewBox="0 0 24 24" version="1.1" xmlns="http://www.w3.org/2000/svg" xmlns:xlink="http://www.w3.org/1999/xlink">
    <title>ticket_line</title>
    <g id="Icon" stroke="none" stroke-width="1" fill="none" fill-rule="evenodd">
        <g id="Business" transform="translate(0.000000, -480.000000)">
            <g id="ticket_line" transform="translate(0.000000, 480.000000)">
                <path d="M24,0 L24,24 L0,24 L0,0 L24,0 Z M12.5935,23.2578 L12.5819,23.2595 L12.5109,23.295 L12.4919,23.2987 L12.4767,23.295 L12.4057,23.2595 C12.3958,23.2564 12.387,23.259 12.3821,23.2649 L12.378,23.2758 L12.3609,23.7031 L12.3659,23.7235 L12.3769,23.7357 L12.4805,23.8097 L12.4953,23.8136 L12.5071,23.8097 L12.6107,23.7357 L12.6233,23.7197 L12.6267,23.7031 L12.6096,23.2758 C12.6076,23.2657 12.601,23.2593 12.5935,23.2578 Z M12.8584,23.1453 L12.8445,23.1473 L12.6598,23.2397 L12.6499,23.2499 L12.6472,23.2611 L12.6651,23.6906 L12.6699,23.7034 L12.6784,23.7105 L12.8793,23.8032 C12.8914,23.8069 12.9022,23.803 12.9078,23.7952 L12.9118,23.7812 L12.8777,23.1665 C12.8753,23.1546 12.8674,23.147 12.8584,23.1453 Z M12.143,23.1473 C12.1332,23.1424 12.1222,23.1453 12.1156,23.1526 L12.1099,23.1665 L12.0758,23.7812 C12.0751,23.7927 12.0828,23.8019 12.0926,23.8046 L12.1083,23.8032 L12.3092,23.7105 L12.3186,23.7024 L12.3225,23.6906 L12.3404,23.2611 L12.3372,23.2485 L12.3278,23.2397 L12.143,23.1473 Z" id="MingCute" fill-rule="nonzero"></path>
                <path d="M5,6 C4.44772,6 4,6.44772 4,7 L4,17 C4,17.5523 4.44772,18 5,18 L12.1707,18 C12.5825,16.8348 13.6938,16 15,16 C16.3062,16 17.4175,16.8348 17.8293,18 L19,18 C19.5523,18 20,17.5523 20,17 L20,7 C20,6.44772 19.5523,6 19,6 L17.8293,6 C17.4175,7.16519 16.3062,8 15,8 C13.6938,8 12.5825,7.16519 12.1707,6 L5,6 Z M2,7 C2,5.34315 3.34315,4 5,4 L13,4 C13.5523,4 14,4.44772 14,5 C14,5.55228 14.4477,6 15,6 C15.5523,6 16,5.55228 16,5 C16,4.44772 16.4477,4 17,4 L19,4 C20.6569,4 22,5.34315 22,7 L22,17 C22,18.6569 20.6569,20 19,20 L17,20 C16.4477,20 16,19.5523 16,19 C16,18.4477 15.5523,18 15,18 C14.4477,18 14,18.4477 14,19 C14,19.5523 13.5523,20 13,20 L5,20 C3.34315,20 2,18.6569 2,17 L2,7 Z M15,9 C15.5523,9 16,9.44772 16,10 L16,10.5 C16,11.0523 15.5523,11.5 15,11.5 C14.4477,11.5 14,11.0523 14,10.5 L14,10 C14,9.44772 14.4477,9 15,9 Z M16,13.5 C16,12.9477 15.5523,12.5 15,12.5 C14.4477,12.5 14,12.9477 14,13.5 L14,14 C14,14.5523 14.4477,15 15,15 C15.5523,15 16,14.5523 16,14 L16,13.5 Z" id="形状" fill="#09244B"></path>
            </g>
        </g>
    </g>
</svg>

<svg xmlns="http://www.w3.org/2000/svg" width="24" height="24"><g fill="none" fill-rule="evenodd"><path d="M24 0v24H0V0zM12.594 23.258l-.012.002-.071.035-.02.004-.014-.004-.071-.036c-.01-.003-.019 0-.024.006l-.004.01-.017.428.005.02.01.013.104.074.015.004.012-.004.104-.074.012-.016.004-.017-.017-.427c-.002-.01-.009-.017-.016-.018m.264-.113-.014.002-.184.093-.01.01-.003.011.018.43.005.012.008.008.201.092c.012.004.023 0 .029-.008l.004-.014-.034-.614c-.003-.012-.01-.02-.02-.022m-.715.002a.023.023 0 0 0-.027.006l-.006.014-.034.614c0 .012.007.02.017.024l.015-.002.201-.093.01-.008.003-.011.018-.43-.003-.012-.01-.01z"/><path fill="#09244B" d="M5 6a1 1 0 0 0-1 1v10a1 1 0 0 0 1 1h7.17a3.001 3.001 0 0 1 5.66 0H19a1 1 0 0 0 1-1V7a1 1 0 0 0-1-1h-1.17a3.001 3.001 0 0 1-5.66 0zM2 7a3 3 0 0 1 3-3h8a1 1 0 0 1 1 1 1 1 0 1 0 2 0 1 1 0 0 1 1-1h2a3 3 0 0 1 3 3v10a3 3 0 0 1-3 3h-2a1 1 0 0 1-1-1 1 1 0 1 0-2 0 1 1 0 0 1-1 1H5a3 3 0 0 1-3-3zm13 2a1 1 0 0 1 1 1v.5a1 1 0 1 1-2 0V10a1 1 0 0 1 1-1m1 4.5a1 1 0 1 0-2 0v.5a1 1 0 1 0 2 0z"/></g></svg>
